X:57
T:Pantheon,The. HSJJ.059
M:6/8
L:1/8
Q:3/8=120
S:HSJ Jackson,Wyresdale,Lancs.1823
R:.Jig
O:England
A:Lancashire
H:1823
Z:vmp.Chris Partington.
K:G
d2dd2c|B2BB2A|G2G AGA|B2BB2c|!
d2dd2c|B2BB2A|G2G AGA|G3G3|!
|b2b bag|a2d def|g2g gfe|f2B Bcd|!
e2e edc|d2G GAB|cdc BcB|A3A3|!
|B3AGA|BcB AGA|BcB AGA|BcBA3|!
a2aa2g|f2ff2e|d2d ede|d2d ” DC”(4G/A/B/c/|]

